Obsidian/status/96/mintupdate-error.svg

<svg height="96" width="96" xmlns="http://www.w3.org/2000/svg"><path d="m-3.1322034 3.7559322c-2.1481 1.9698-5.7654 3.7049-6.9999996 4 0 5.3329998 2.6249996 11.1109998 6.9999996 11.9999998 4.375-.889 7-6.667 7-11.9999998-1.235-.2951-4.85199999-2.0302-7-4z" fill="#d22f1a" fill-rule="evenodd" transform="matrix(5 0 0 5 63.66102 -10.433665)"/><g fill="#fff" transform="matrix(1.0869565 0 0 1.0584392 21.976799 20.286043)"><path d="m42.5 35.000459-10.50009-11 10.500001-10-7.500001-7.4999988-10.499999 10.4999988-10.499999-10.4999988-7.4999987 7.4999988 10.4999977 10-10.4999977 11 7.4999987 7.499999 10.499999-10.5 9.5 10.5z"/><path d="m41 35.000459-10.50009-11 10.5-10-6-5.9999998-10.49969 10.4999998-10.500308-10.4999998-5.9999997 5.9999998 10.4999987 10-10.4999987 11 5.9999997 6 10.499999-10.5 9.500089 10.499541z" opacity=".4"/></g></svg>

<?xml version="1.0" encoding="UTF-8" standalone="no"?>
<svg
   xmlns:dc="http://purl.org/dc/elements/1.1/"
   xmlns:cc="http://creativecommons.org/ns#"
   xmlns:rdf="http://www.w3.org/1999/02/22-rdf-syntax-ns#"
   xmlns:svg="http://www.w3.org/2000/svg"
   xmlns="http://www.w3.org/2000/svg"
   xmlns:xlink="http://www.w3.org/1999/xlink"
   xmlns:sodipodi="http://sodipodi.sourceforge.net/DTD/sodipodi-0.dtd"
   xmlns:inkscape="http://www.inkscape.org/namespaces/inkscape"
   width="96"
   height="96"
   id="svg7387"
   version="1.1"
   sodipodi:docname="mintupdate-error.svg"
   inkscape:version="0.92.2 2405546, 2018-03-11">
  <sodipodi:namedview
     pagecolor="#ffffff"
     bordercolor="#666666"
     borderopacity="1"
     objecttolerance="10"
     gridtolerance="10"
     guidetolerance="10"
     inkscape:pageopacity="0"
     inkscape:pageshadow="2"
     inkscape:window-width="1920"
     inkscape:window-height="1011"
     id="namedview163"
     showgrid="false"
     inkscape:zoom="2.4583333"
     inkscape:cx="0.81355932"
     inkscape:cy="48"
     inkscape:window-x="0"
     inkscape:window-y="32"
     inkscape:window-maximized="1"
     inkscape:current-layer="svg7387" />
  <defs
     id="defs7389">
    <linearGradient
       id="linearGradient973">
      <stop
         style="stop-color:#d22f1a;stop-opacity:1"
         offset="0"
         id="stop969" />
      <stop
         style="stop-color:#a40000;stop-opacity:1"
         offset="1"
         id="stop971" />
    </linearGradient>
    <linearGradient
       id="linearGradient4640">
      <stop
         id="stop4636"
         offset="0"
         style="stop-color:#00823d;stop-opacity:1" />
      <stop
         id="stop4638"
         offset="1"
         style="stop-color:#16a553;stop-opacity:1" />
    </linearGradient>
    <linearGradient
       id="linearGradient4634">
      <stop
         id="stop4630"
         offset="0"
         style="stop-color:#31bb80;stop-opacity:1" />
      <stop
         id="stop4632"
         offset="1"
         style="stop-color:#4ba858;stop-opacity:1" />
    </linearGradient>
    <linearGradient
       id="linearGradient5185">
      <stop
         style="stop-color:#000000;stop-opacity:1;"
         offset="0"
         id="stop5187" />
      <stop
         style="stop-color:#000000;stop-opacity:0;"
         offset="1"
         id="stop5189" />
    </linearGradient>
    <linearGradient
       id="linearGradient5177">
      <stop
         style="stop-color:#000000;stop-opacity:1;"
         offset="0"
         id="stop5179" />
      <stop
         style="stop-color:#000000;stop-opacity:0;"
         offset="1"
         id="stop5181" />
    </linearGradient>
    <radialGradient
       xlink:href="#linearGradient11494"
       id="radialGradient3213"
       gradientUnits="userSpaceOnUse"
       gradientTransform="matrix(1.341804,0,0,1.341804,-9.425986,-5.222852)"
       cx="27.577173"
       cy="15.048258"
       fx="27.577173"
       fy="15.048258"
       r="3.8335035" />
    <linearGradient
       id="linearGradient11494">
      <stop
         id="stop11496"
         offset="0"
         style="stop-color:#ef2929;stop-opacity:1;" />
      <stop
         id="stop11498"
         offset="1"
         style="stop-color:#ef2929;stop-opacity:0;" />
    </linearGradient>
    <radialGradient
       xlink:href="#linearGradient11494"
       id="radialGradient3211"
       gradientUnits="userSpaceOnUse"
       gradientTransform="matrix(1.478479,0,0,1.478479,-13.1951,-7.329062)"
       cx="27.577173"
       cy="15.258821"
       fx="27.577173"
       fy="15.258821"
       r="3.8335035" />
    <linearGradient
       id="linearGradient2660">
      <stop
         style="stop-color:#edeeec;stop-opacity:1;"
         offset="0"
         id="stop2662" />
      <stop
         style="stop-color:#babdb6;stop-opacity:1;"
         offset="1"
         id="stop2664" />
    </linearGradient>
    <radialGradient
       xlink:href="#linearGradient2660"
       id="radialGradient3209"
       gradientUnits="userSpaceOnUse"
       gradientTransform="matrix(4.072994,0,0,2.874492,-48.88488,-43.21542)"
       cx="17.62042"
       cy="21.610504"
       fx="17.62042"
       fy="21.610504"
       r="7.9999995" />
    <linearGradient
       id="linearGradient15653">
      <stop
         style="stop-color:#f0f1ee;stop-opacity:1;"
         offset="0"
         id="stop15655" />
      <stop
         style="stop-color:#d5d9d1;stop-opacity:1;"
         offset="1"
         id="stop15657" />
    </linearGradient>
    <radialGradient
       xlink:href="#linearGradient15653"
       id="radialGradient3207"
       gradientUnits="userSpaceOnUse"
       gradientTransform="matrix(1.616548,0,0,1.708051,-14.02647,-8.007523)"
       cx="22.75"
       cy="10.250003"
       fx="22.75"
       fy="10.250003"
       r="19.875" />
    <linearGradient
       id="linearGradient15679">
      <stop
         style="stop-color:#000000;stop-opacity:1;"
         offset="0"
         id="stop15681" />
      <stop
         style="stop-color:#000000;stop-opacity:0;"
         offset="1"
         id="stop15683" />
    </linearGradient>
    <radialGradient
       xlink:href="#linearGradient15679"
       id="radialGradient15685"
       cx="23.3125"
       cy="40.9375"
       fx="23.3125"
       fy="40.9375"
       r="17.1875"
       gradientTransform="matrix(1,0,0,0.316364,0,27.98636)"
       gradientUnits="userSpaceOnUse" />
    <linearGradient
       gradientUnits="userSpaceOnUse"
       y2="25.265627"
       x2="52.122673"
       y1="25.265627"
       x1="8.6878576"
       id="linearGradient5341"
       xlink:href="#linearGradient5335" />
    <linearGradient
       y2="19.776045"
       x2="11.881318"
       y1="37.904068"
       x1="49.412277"
       gradientUnits="userSpaceOnUse"
       id="linearGradient8174"
       xlink:href="#linearGradient8152" />
    <linearGradient
       gradientUnits="userSpaceOnUse"
       y2="19.776045"
       x2="11.881318"
       y1="37.904068"
       x1="49.412277"
       id="linearGradient8158"
       xlink:href="#linearGradient8152" />
    <linearGradient
       id="linearGradient2831">
      <stop
         id="stop2833"
         offset="0"
         style="stop-color:#3465a4;stop-opacity:1;" />
      <stop
         style="stop-color:#5b86be;stop-opacity:1;"
         offset="0.33333334"
         id="stop2855" />
      <stop
         id="stop2835"
         offset="1"
         style="stop-color:#83a8d8;stop-opacity:0;" />
    </linearGradient>
    <linearGradient
       id="linearGradient3207">
      <stop
         id="stop3209"
         offset="0"
         style="stop-color:#eeeeec;stop-opacity:0.47058824;" />
      <stop
         id="stop3211"
         offset="1"
         style="stop-color:#eeeeec;stop-opacity:0;" />
    </linearGradient>
    <linearGradient
       id="linearGradient8152">
      <stop
         id="stop8154"
         offset="0"
         style="stop-color:#3465a4;stop-opacity:1;" />
      <stop
         style="stop-color:#4f7eba;stop-opacity:1;"
         offset="0.5"
         id="stop3174" />
      <stop
         id="stop8156"
         offset="1"
         style="stop-color:#729fcf;stop-opacity:1;" />
    </linearGradient>
    <linearGradient
       id="linearGradient5313">
      <stop
         style="stop-color:#99b8df;stop-opacity:1"
         offset="0"
         id="stop5315" />
      <stop
         id="stop5333"
         offset="0.23705086"
         style="stop-color:#3969a8;stop-opacity:1;" />
      <stop
         id="stop5317"
         offset="0.54706067"
         style="stop-color:#4f7eba;stop-opacity:1;" />
      <stop
         style="stop-color:#96b6d7;stop-opacity:1"
         offset="0.74557692"
         id="stop5321" />
      <stop
         id="stop5331"
         offset="0.87321436"
         style="stop-color:#a0bddc;stop-opacity:1" />
      <stop
         style="stop-color:#729fcf;stop-opacity:1;"
         offset="1"
         id="stop5319" />
    </linearGradient>
    <linearGradient
       id="linearGradient5335">
      <stop
         id="stop5337"
         offset="0"
         style="stop-color:#ffffff;stop-opacity:1;" />
      <stop
         id="stop5339"
         offset="1"
         style="stop-color:#ffffff;stop-opacity:0;" />
    </linearGradient>
    <linearGradient
       id="linearGradient1731">
      <stop
         style="stop-color:#b8e6db;stop-opacity:1"
         offset="0"
         id="stop1733" />
      <stop
         style="stop-color:#cbe9d3;stop-opacity:1"
         offset="1"
         id="stop1735" />
    </linearGradient>
    <linearGradient
       id="linearGradient3533">
      <stop
         offset="0"
         style="stop-color:#729fcf;stop-opacity:1"
         id="stop3535" />
      <stop
         offset="1"
         style="stop-color:#3465a4;stop-opacity:1"
         id="stop3545" />
    </linearGradient>
    <linearGradient
       id="linearGradient3266">
      <stop
         id="stop3268"
         offset="0"
         style="stop-color:#204a87;stop-opacity:1" />
      <stop
         id="stop3270"
         offset="1"
         style="stop-color:#204a87;stop-opacity:0" />
    </linearGradient>
    <linearGradient
       id="linearGradient3319">
      <stop
         id="stop3321"
         offset="0"
         style="stop-color:#ffffff;stop-opacity:0;" />
      <stop
         style="stop-color:#ffffff;stop-opacity:0.14383562;"
         offset="0.57424062"
         id="stop3323" />
      <stop
         id="stop3325"
         offset="1"
         style="stop-color:#ffffff;stop-opacity:0;" />
    </linearGradient>
    <linearGradient
       id="linearGradient5252">
      <stop
         style="stop-color:#fed496;stop-opacity:1;"
         offset="0"
         id="stop5256" />
      <stop
         style="stop-color:#fcaf3e;stop-opacity:1;"
         offset="1"
         id="stop5254" />
    </linearGradient>
    <linearGradient
       id="linearGradient11223"
       gradientUnits="userSpaceOnUse"
       x1="4.1914001"
       y1="11.1133"
       x2="47.319698"
       y2="56.052299">
      <stop
         offset="0"
         style="stop-color:#ffffff;stop-opacity:1;"
         id="stop11225" />
      <stop
         offset="1"
         style="stop-color:#ffffff;stop-opacity:0"
         id="stop11227" />
    </linearGradient>
    <linearGradient
       id="linearGradient3690">
      <stop
         style="stop-color:white;stop-opacity:1;"
         offset="0"
         id="stop3692" />
      <stop
         style="stop-color:white;stop-opacity:0.46875"
         offset="1"
         id="stop3694" />
    </linearGradient>
    <linearGradient
       id="linearGradient3674">
      <stop
         style="stop-color:#555753;stop-opacity:1"
         offset="0"
         id="stop3676" />
      <stop
         style="stop-color:#888a85;stop-opacity:1"
         offset="1"
         id="stop3678" />
    </linearGradient>
    <linearGradient
       id="linearGradient2781">
      <stop
         style="stop-color:#d3d7cf;stop-opacity:1"
         offset="0"
         id="stop2783" />
      <stop
         style="stop-color:#eeeeec;stop-opacity:1"
         offset="1"
         id="stop2785" />
    </linearGradient>
    <linearGradient
       id="linearGradient51765">
      <stop
         style="stop-color:#000000;stop-opacity:1"
         offset="0"
         id="stop51767" />
      <stop
         style="stop-color:#000000;stop-opacity:0"
         offset="1"
         id="stop51769" />
    </linearGradient>
    <linearGradient
       id="linearGradient47870">
      <stop
         style="stop-color:#000000;stop-opacity:0"
         offset="0"
         id="stop47872" />
      <stop
         style="stop-color:#000000;stop-opacity:1"
         offset="0.5"
         id="stop47878" />
      <stop
         style="stop-color:#000000;stop-opacity:0"
         offset="1"
         id="stop47874" />
    </linearGradient>
    <linearGradient
       id="linearGradient2378">
      <stop
         style="stop-color:#ffffff;stop-opacity:1;"
         offset="0"
         id="stop2380" />
      <stop
         id="stop4146"
         offset="0.25"
         style="stop-color:#fefede;stop-opacity:0.91836733;" />
      <stop
         id="stop2386"
         offset="0.5"
         style="stop-color:#f5f328;stop-opacity:1;" />
      <stop
         style="stop-color:#f5f32d;stop-opacity:0.12234043;"
         offset="1"
         id="stop2382" />
    </linearGradient>
    <radialGradient
       r="10.982252"
       fy="15.746525"
       fx="11.026446"
       cy="15.746525"
       cx="11.026446"
       gradientTransform="matrix(1,0,0,0.4889336,0,8.0475196)"
       gradientUnits="userSpaceOnUse"
       id="radialGradient8567"
       xlink:href="#linearGradient3383" />
    <linearGradient
       id="linearGradient3383">
      <stop
         id="stop3385"
         offset="0"
         style="stop-color:#000000;stop-opacity:1;" />
      <stop
         id="stop3387"
         offset="1"
         style="stop-color:#000000;stop-opacity:0;" />
    </linearGradient>
    <radialGradient
       gradientUnits="userSpaceOnUse"
       gradientTransform="matrix(-0.9906918,0.9838734,-0.9873672,-0.9911854,14.34067,-13.780844)"
       r="15.17675"
       fy="-3.1232908"
       fx="6.484127"
       cy="-3.1232908"
       cx="6.484127"
       id="radialGradient2766"
       xlink:href="#linearGradient2760" />
    <linearGradient
       id="linearGradient2760">
      <stop
         id="stop2762"
         offset="0"
         style="stop-color:#fff6aa;stop-opacity:1" />
      <stop
         style="stop-color:#fce94f;stop-opacity:1"
         offset="0.56428707"
         id="stop1884" />
      <stop
         id="stop2764"
         offset="1"
         style="stop-color:#fcaf3e;stop-opacity:1" />
    </linearGradient>
    <linearGradient
       gradientUnits="userSpaceOnUse"
       y2="21.047073"
       x2="11.000734"
       y1="-7.5773058"
       x1="11.000734"
       id="linearGradient7955"
       xlink:href="#linearGradient7948" />
    <linearGradient
       id="linearGradient7948">
      <stop
         id="stop7950"
         offset="0"
         style="stop-color:#c4a000;stop-opacity:1;" />
      <stop
         id="stop7953"
         offset="1"
         style="stop-color:#ce5c00;stop-opacity:1" />
    </linearGradient>
    <linearGradient
       gradientUnits="userSpaceOnUse"
       y2="20.587196"
       x2="11"
       y1="-7.0623527"
       x1="11"
       id="linearGradient7956"
       xlink:href="#linearGradient7950" />
    <linearGradient
       id="linearGradient7950">
      <stop
         id="stop7952"
         offset="0"
         style="stop-color:#ffffff;stop-opacity:1;" />
      <stop
         id="stop7954"
         offset="1"
         style="stop-color:#ffffff;stop-opacity:0;" />
    </linearGradient>
    <radialGradient
       r="7.228416"
       fy="73.615715"
       fx="6.702713"
       cy="73.615715"
       cx="6.702713"
       gradientTransform="scale(1.902215,0.525703)"
       gradientUnits="userSpaceOnUse"
       id="radialGradient3080"
       xlink:href="#linearGradient10691" />
    <linearGradient
       id="linearGradient10691">
      <stop
         style="stop-color:#000000;stop-opacity:1;"
         offset="0"
         id="stop10693" />
      <stop
         style="stop-color:#000000;stop-opacity:0;"
         offset="1"
         id="stop10695" />
    </linearGradient>
    <radialGradient
       r="9.7552834"
       fy="-5.7132163"
       fx="62.202274"
       cy="-5.7132163"
       cx="62.202274"
       gradientTransform="matrix(-7.565785,-6.219707e-7,3.9644633e-7,-4.8230546,494.60904,-26.555114)"
       gradientUnits="userSpaceOnUse"
       id="radialGradient2707"
       xlink:href="#linearGradient5106" />
    <linearGradient
       id="linearGradient5106">
      <stop
         id="stop5108"
         offset="0"
         style="stop-color:#8fb3d9;stop-opacity:1" />
      <stop
         style="stop-color:#729fcf;stop-opacity:1"
         offset="0.25288007"
         id="stop8208" />
      <stop
         id="stop8210"
         offset="0.68271071"
         style="stop-color:#3465a4;stop-opacity:1" />
      <stop
         id="stop5110"
         offset="1"
         style="stop-color:#204a87;stop-opacity:1" />
    </linearGradient>
    <linearGradient
       gradientTransform="matrix(1.0805272,0,0,1.0805026,-1.5082857,-3.3507598)"
       gradientUnits="userSpaceOnUse"
       y2="3.8851264"
       x2="15.046636"
       y1="44.787998"
       x1="15.046636"
       id="linearGradient3927"
       xlink:href="#linearGradient3811" />
    <linearGradient
       id="linearGradient3811">
      <stop
         style="stop-color:#204a87;stop-opacity:1"
         offset="0"
         id="stop3813" />
      <stop
         style="stop-color:#3465a4;stop-opacity:1"
         offset="1"
         id="stop3815" />
    </linearGradient>
    <linearGradient
       y2="7.1072145"
       x2="62.608765"
       y1="-13.444987"
       x1="62.745731"
       gradientTransform="matrix(2.3440063,0,0,2.3440063,-121.79862,31.22942)"
       gradientUnits="userSpaceOnUse"
       id="linearGradient2704"
       xlink:href="#linearGradient4873" />
    <linearGradient
       id="linearGradient4873">
      <stop
         id="stop4875"
         offset="0"
         style="stop-color:#ffffff;stop-opacity:1;" />
      <stop
         id="stop4877"
         offset="1"
         style="stop-color:#ffffff;stop-opacity:0;" />
    </linearGradient>
    <radialGradient
       xlink:href="#linearGradient3165"
       id="radialGradient2949"
       gradientUnits="userSpaceOnUse"
       gradientTransform="matrix(8.2058966,0,0,5.6072569,-97.6306,-129.8057)"
       cx="17.62042"
       cy="21.610504"
       fx="17.62042"
       fy="21.610504"
       r="7.9999995" />
    <radialGradient
       xlink:href="#linearGradient973"
       id="radialGradient2953"
       gradientUnits="userSpaceOnUse"
       gradientTransform="matrix(3.2568734,0,0,3.3318864,-31.458385,-57.380604)"
       cx="22.75"
       cy="10.250003"
       fx="22.75"
       fy="10.250003"
       r="19.875" />
    <linearGradient
       xlink:href="#linearGradient5177"
       id="linearGradient5183"
       x1="24.001118"
       y1="60.65036"
       x2="24.001118"
       y2="0.97107655"
       gradientUnits="userSpaceOnUse"
       gradientTransform="matrix(2.0021174,0,0,1.9506949,-2.0985049,-46.480945)" />
    <linearGradient
       xlink:href="#linearGradient5185"
       id="linearGradient5191"
       x1="24.001118"
       y1="60.65036"
       x2="24.001118"
       y2="0.97107655"
       gradientUnits="userSpaceOnUse"
       gradientTransform="matrix(2.0021174,0,0,1.9506949,-2.0985049,-46.480945)" />
    <linearGradient
       id="linearGradient3165">
      <stop
         id="stop3167"
         offset="0"
         style="stop-color:#e78181;stop-opacity:1" />
      <stop
         style="stop-color:#e15f5f;stop-opacity:1"
         offset="0.25"
         id="stop8599" />
      <stop
         id="stop8601"
         offset="0.68000001"
         style="stop-color:#c22f2f;stop-opacity:1" />
      <stop
         id="stop3169"
         offset="1"
         style="stop-color:#a40000;stop-opacity:1" />
    </linearGradient>
    <radialGradient
       r="10.31934"
       fy="35.127438"
       fx="23.070683"
       cy="35.127438"
       cx="23.070683"
       gradientTransform="matrix(0.914812,0.01265023,-0.00821502,0.213562,2.253914,27.18889)"
       gradientUnits="userSpaceOnUse"
       id="radialGradient2177"
       xlink:href="#linearGradient5185" />
    <radialGradient
       gradientUnits="userSpaceOnUse"
       gradientTransform="matrix(-2.1314195e-8,2.5479117,-4.8841578,-2.2328085e-8,144.16406,-10.748097)"
       r="18.500046"
       fy="24.500458"
       fx="6.5734448"
       cy="24.500458"
       cx="6.5734448"
       id="radialGradient7958"
       xlink:href="#linearGradient4873" />
    <linearGradient
       gradientUnits="userSpaceOnUse"
       y2="43.000458"
       x2="23.099995"
       y1="6.0004601"
       x1="23.172504"
       id="linearGradient7961"
       xlink:href="#linearGradient7955-8" />
    <linearGradient
       id="linearGradient7955-8">
      <stop
         id="stop7957"
         offset="0"
         style="stop-color:#c22f2f;stop-opacity:1" />
      <stop
         id="stop7959"
         offset="1"
         style="stop-color:#a40000;stop-opacity:1" />
    </linearGradient>
    <linearGradient
       y2="36.296539"
       x2="12.717501"
       y1="17.041941"
       x1="31.972097"
       gradientTransform="matrix(1.0494758,-1.0494758,1.0494758,1.0494758,-26.939092,23.169297)"
       gradientUnits="userSpaceOnUse"
       id="linearGradient3005"
       xlink:href="#linearGradient5335" />
  </defs>
  <metadata
     id="metadata7392">
    <rdf:RDF>
      <cc:Work
         rdf:about="">
        <dc:format>image/svg+xml</dc:format>
        <dc:type
           rdf:resource="http://purl.org/dc/dcmitype/StillImage" />
        <dc:title />
      </cc:Work>
    </rdf:RDF>
  </metadata>
  <g
     id="g974"
     transform="matrix(5,0,0,5,491.79586,141.09176)"
     style="fill:#d22f1a;fill-opacity:1">
    <g
       style="fill:#d22f1a;fill-opacity:1"
       id="g7"
       transform="translate(-85.626968,-30.305085)">
      <path
         id="path5"
         d="m -3.1322034,3.7559322 c -2.1481,1.9698 -5.7654,3.7049 -6.9999996,4 0,5.3329998 2.6249996,11.1109998 6.9999996,11.9999998 4.375,-0.889 7,-6.667 7,-11.9999998 -1.235,-0.2951 -4.85199999,-2.0302 -7,-4 z"
         class="ColorScheme-Text"
         style="fill:#d22f1a;fill-opacity:1;fill-rule:evenodd"
         inkscape:connector-curvature="0"
         sodipodi:nodetypes="ccccc" />
    </g>
  </g>
  <g
     id="layer1"
     transform="translate(0,48)">
    <g
       id="g3215"
       transform="translate(-1.51e-4)">
      <g
         transform="matrix(1.4573283,0,0,1.4561353,178.38133,-10.742716)"
         id="g1529">
        <g
           transform="matrix(1.017301,-0.243559,0.243559,1.017301,-1.745715,-23.38258)"
           id="g1450" />
      </g>
      <g
         style="fill:#ffffff;fill-opacity:1;stroke:none"
         id="layer1-7"
         transform="matrix(1.0869565,0,0,1.0584392,21.97695,-27.713957)">
        <path
           id="text1314"
           d="m 42.5,35.000459 -10.50009,-11 10.500001,-10 L 34.99991,6.5004602 24.499911,17.000459 13.999912,6.5004602 6.4999133,14.000459 l 10.4999977,10 -10.4999977,11 7.4999987,7.499999 10.499999,-10.5 9.5,10.5 z"
           style="font-style:normal;font-variant:normal;font-weight:bold;font-stretch:normal;font-size:59.90107727px;line-height:125%;font-family:'Bitstream Vera Sans';text-align:start;writing-mode:lr-tb;text-anchor:start;fill:#ffffff;fill-opacity:1;stroke:none;stroke-width:0.50669092;stroke-linecap:butt;stroke-linejoin:round;stroke-miterlimit:4;stroke-dasharray:none;stroke-opacity:1"
           inkscape:connector-curvature="0" />
        <path
           id="path7076"
           d="m 41,35.000459 -10.50009,-11 10.5,-10 -6,-5.9999998 L 24.50022,18.500459 13.999912,8.0004592 7.9999123,14.000459 l 10.4999987,10 -10.4999987,11 5.9999997,6 10.499999,-10.5 L 34,41 Z"
           style="font-style:normal;font-variant:normal;font-weight:bold;font-stretch:normal;font-size:59.90107727px;line-height:125%;font-family:'Bitstream Vera Sans';text-align:start;writing-mode:lr-tb;text-anchor:start;opacity:0.4;fill:#ffffff;fill-opacity:1;stroke:none;stroke-width:0.50669092;stroke-linecap:butt;stroke-linejoin:round;stroke-miterlimit:4;stroke-dasharray:none;stroke-opacity:1"
           inkscape:connector-curvature="0" />
      </g>
    </g>
  </g>
</svg>
